packages/blockchain-info-components/src/Images/img/blockchain-silver.svg

<svg fill="none" height="24" viewBox="0 0 24 24" width="24" xmlns="http://www.w3.org/2000/svg"><g fill="#c2c9d6"><path d="m2.05353 8.72217-1.094996 1.095c-.303074.29113-.5442.64053-.708915 1.02713-.1647162.3867-.249619.8026-.249619 1.2229 0 .4202.0849028.8362.249619 1.2228.164715.3866.405841.736.708915 1.0272l8.821476 8.9085c.20908.2139.45239.3913.71999.525v-10.7985z"/><path d="m21.9465 8.72217 1.095 1.095c.303.29113.5442.64053.7089 1.02713.1647.3867.2496.8026.2496 1.2229 0 .4202-.0849.8362-.2496 1.2228s-.4059.736-.7089 1.0272l-8.8215 8.9085c-.2091.2139-.4524.3913-.72.525v-10.7985z"/><path d="m19.8284 6.48695-5.52-5.534996c-.2922-.301193-.6419-.540658-1.0284-.704178-.3865-.1635204-.8019-.247776-1.2216-.247776-.4196 0-.835.0842556-1.2215.247776-.3865.16352-.7362.402985-1.02846.704178l-5.535 5.534996 7.75496 3.86995z"/></g></svg>

<svg width="24" height="24" viewBox="0 0 24 24" fill="none" xmlns="http://www.w3.org/2000/svg">
<path d="M2.05353 8.72217L0.958534 9.81717C0.65546 10.1083 0.414334 10.4577 0.249619 10.8443C0.0849028 11.231 0 11.6469 0 12.0672C0 12.4874 0.0849028 12.9034 0.249619 13.29C0.414334 13.6766 0.65546 14.026 0.958534 14.3172L9.78001 23.2257C9.98909 23.4396 10.2324 23.617 10.5 23.7507V12.9522L2.05353 8.72217Z" fill="#C2C9D6"/>
<path d="M21.9465 8.72217L23.0415 9.81717C23.3445 10.1083 23.5857 10.4577 23.7504 10.8443C23.9151 11.231 24 11.6469 24 12.0672C24 12.4874 23.9151 12.9034 23.7504 13.29C23.5857 13.6766 23.3445 14.026 23.0415 14.3172L14.22 23.2257C14.0109 23.4396 13.7676 23.617 13.5 23.7507V12.9522L21.9465 8.72217Z" fill="#C2C9D6"/>
<path d="M19.8284 6.48695L14.3084 0.951954C14.0162 0.650761 13.6665 0.411296 13.28 0.247776C12.8935 0.0842556 12.4781 0 12.0584 0C11.6388 0 11.2234 0.0842556 10.8369 0.247776C10.4504 0.411296 10.1007 0.650761 9.80844 0.951954L4.27344 6.48695L12.0284 10.3569L19.8284 6.48695Z" fill="#C2C9D6"/>
</svg>
